img/icon/mistake-red.svg

<svg width="24" height="22" viewBox="0 0 24 22" fill="none" xmlns="http://www.w3.org/2000/svg">
<path d="M18.1643 9.36667L20.9274 12.1444M6.52618 21H6.35929C3.39947 21 1 18.5878 1 15.6122C1 13.4833 2.24671 11.5533 4.18308 10.6889L8.55982 8.73333C10.0121 8.08444 10.9471 6.63778 10.9471 5.04111C10.9471 2.80889 9.1478 1 6.92738 1H6.52618M10.5393 17.0411L19.9216 7.60889C20.3538 7.17444 21.0534 7.17444 21.4844 7.60889L22.6759 8.80667C23.108 9.24111 23.108 9.94444 22.6759 10.3778L13.2913 19.8122C13.0007 20.1044 12.6348 20.3089 12.2358 20.4033L10.4144 20.8356C9.87947 20.9622 9.39869 20.48 9.52358 19.9411L9.9502 18.1067C10.0441 17.7033 10.2486 17.3344 10.5393 17.0411Z" stroke="#FF6741" stroke-width="1.5" stroke-linecap="round" stroke-linejoin="round"/>
</svg>

<svg width="24" height="22" fill="none" xmlns="http://www.w3.org/2000/svg"><path d="M18.164 9.367l2.763 2.777M6.527 21h-.168C3.4 21 1 18.588 1 15.612a5.388 5.388 0 0 1 3.183-4.923L8.56 8.733a4.041 4.041 0 0 0 2.387-3.692C10.947 2.81 9.147 1 6.927 1h-.4m4.012 16.041l9.383-9.432a1.1 1.1 0 0 1 1.562 0l1.192 1.198a1.114 1.114 0 0 1 0 1.57l-9.385 9.435c-.29.292-.656.497-1.055.591l-1.822.433a.743.743 0 0 1-.89-.895l.426-1.834a2.23 2.23 0 0 1 .59-1.066z" stroke="#FF6741" stroke-width="1.5" stroke-linecap="round" stroke-linejoin="round"/></svg>
